admin/src/theme/img/safetyequipment/k.svg

<svg width="32" height="32" viewBox="0 0 32 32" xmlns="http://www.w3.org/2000/svg">
  <g fill="none" fill-rule="evenodd">
    <path d="M16 4.18857143c1.8285714 0 3.3942857.65142857 4.7028571 1.96 1.3085715 1.30857143 1.96 2.87428571 1.96 4.70285717 0 1.8285714-.6514285 3.4-1.96 4.7028571-1.3085714 1.3085714-2.8742857 1.96-4.7028571 1.96s-3.3942857-.6514286-4.7028571-1.96C9.98857143 14.2457143 9.33714286 12.68 9.33714286 10.8514286c0-1.82857146.65142857-3.39428574 1.96000004-4.70285717 1.3085714-1.30857143 2.8742857-1.96 4.7028571-1.96Zm0 .95428571c-1.6 0-2.9542857.56-4.0571429 1.67428572C10.84 7.93714286 10.2857143 9.28 10.2857143 10.8571429c0 1.5771428.5542857 2.92 1.6571428 4.04C13.0457143 16.0171429 14.4 16.5714286 16 16.5714286c1.6 0 2.92-.56 4.04-1.6742857 1.12-1.12 1.6742857-2.4628572 1.6742857-4.04 0-1.5771429-.56-2.92000004-1.6742857-4.04000004-1.12-1.12-2.4628571-1.67428572-4.04-1.67428572ZM11.24 30.8571429h9.5257143V32H11.24v-1.1428571Zm7.4285714-20.1885715h-5.3314285l2.6685714-4.57142854 2.6685714 4.57142854h-.0057143ZM13.3371429 11.24h5.3314285L16 15.8114286 13.3314286 11.24h.0057143Zm2.0971428-.5714286V11.24h1.1428572v-.5714286h-1.1428572Zm0 4.1885715v.9142857h.5714286l-.5714286-.9142857Zm0 0v.9142857h.5714286l-.5714286-.9142857Zm0 .9542857h1.1428572v.76h-1.1428572v-.76Zm0 1.7142857v13.3314286h1.1428572V17.5257143h-1.1428572Zm1.1428572-2.6685714v.9142857h-.5714286l.5714286-.9142857Z" fill="#EC0E0E" fill-rule="nonzero"/>
    <path d="M0 0h32v32H0z"/>
  </g>
</svg>

<?xml version="1.0" encoding="UTF-8"?>
<svg width="32px" height="32px" viewBox="0 0 32 32" version="1.1" xmlns="http://www.w3.org/2000/svg" xmlns:xlink="http://www.w3.org/1999/xlink">
    <title>CA003F24-457A-4909-B8BD-3D294204E391</title>
    <g id="Squat-laskuri" stroke="none" stroke-width="1" fill="none" fill-rule="evenodd">
        <g id="colors_and_typography" transform="translate(-1198.000000, -906.000000)">
            <g id="turvalaite_ikonit" transform="translate(718.000000, 906.000000)">
                <g id="kardinaali_itä_valaistu" transform="translate(480.000000, 0.000000)">
                    <path d="M16,4.18857143 C17.8285714,4.18857143 19.3942857,4.84 20.7028571,6.14857143 C22.0114286,7.45714286 22.6628571,9.02285714 22.6628571,10.8514286 C22.6628571,12.68 22.0114286,14.2514286 20.7028571,15.5542857 C19.3942857,16.8628571 17.8285714,17.5142857 16,17.5142857 C14.1714286,17.5142857 12.6057143,16.8628571 11.2971429,15.5542857 C9.98857143,14.2457143 9.33714286,12.68 9.33714286,10.8514286 C9.33714286,9.02285714 9.98857143,7.45714286 11.2971429,6.14857143 C12.6057143,4.84 14.1714286,4.18857143 16,4.18857143 L16,4.18857143 Z M16,5.14285714 C14.4,5.14285714 13.0457143,5.70285714 11.9428571,6.81714286 C10.84,7.93714286 10.2857143,9.28 10.2857143,10.8571429 C10.2857143,12.4342857 10.84,13.7771429 11.9428571,14.8971429 C13.0457143,16.0171429 14.4,16.5714286 16,16.5714286 C17.6,16.5714286 18.92,16.0114286 20.04,14.8971429 C21.16,13.7771429 21.7142857,12.4342857 21.7142857,10.8571429 C21.7142857,9.28 21.1542857,7.93714286 20.04,6.81714286 C18.92,5.69714286 17.5771429,5.14285714 16,5.14285714 Z M11.24,30.8571429 L20.7657143,30.8571429 L20.7657143,32 L11.24,32 L11.24,30.8571429 Z M18.6685714,10.6685714 L13.3371429,10.6685714 L16.0057143,6.09714286 L18.6742857,10.6685714 L18.6685714,10.6685714 Z M13.3371429,11.24 L18.6685714,11.24 L16,15.8114286 L13.3314286,11.24 L13.3371429,11.24 Z M15.4342857,10.6685714 L15.4342857,11.24 L16.5771429,11.24 L16.5771429,10.6685714 L15.4342857,10.6685714 Z M15.4342857,14.8571429 L15.4342857,15.7714286 L16.0057143,15.7714286 L15.4342857,14.8571429 Z M15.4342857,14.8571429 L15.4342857,15.7714286 L16.0057143,15.7714286 L15.4342857,14.8571429 Z M15.4342857,15.8114286 L16.5771429,15.8114286 L16.5771429,16.5714286 L15.4342857,16.5714286 L15.4342857,15.8114286 Z M15.4342857,17.5257143 L15.4342857,30.8571429 L16.5771429,30.8571429 L16.5771429,17.5257143 L15.4342857,17.5257143 Z M16.5771429,14.8571429 L16.5771429,15.7714286 L16.0057143,15.7714286 L16.5771429,14.8571429 Z" id="Shape" fill="#EC0E0E" fill-rule="nonzero"></path>
                    <rect id="Rectangle" x="0" y="0" width="32" height="32"></rect>
                </g>
            </g>
        </g>
    </g>
</svg>
